X: 1
T: Larry Lavin's Choice
S: O'Neill's Dance Music of Ireland, 1551
M: 4/4
L: 1/8
R: reel
K: Dmaj
A2FA ABdf|edfd edBd|A2FA ABdB|1 AFEG FDDB:|2 AFEG FDD2||
|:FAdA BAdA|Beed cAA2|1 FAdA BAdF|GFEG FDD2:|2 FAAc BAdB|AFEG FDD2||
